flaticon/business/bag-2.svg

<svg xmlns="http://www.w3.org/2000/svg" width="32" height="32" viewBox="0 0 24 24">
    <path d="M8.714844 5.921875C9.167969 5.921875 9.535156 6.289062 9.535156 6.742188 9.535156 6.972656 9.71875 7.15625 9.945312 7.15625 10.171875 7.15625 10.355469 6.972656 10.355469 6.742188 10.355469 5.835938 9.621094 5.101562 8.714844 5.101562 7.808594 5.101562 7.070312 5.835938 7.070312 6.742188 7.070312 6.972656 7.253906 7.15625 7.480469 7.15625 7.707031 7.15625 7.890625 6.972656 7.890625 6.742188 7.890625 6.292969 8.261719 5.921875 8.714844 5.921875zM16.519531 7.15625C16.746094 7.15625 16.929688 6.972656 16.929688 6.742188 16.929688 5.835938 16.191406 5.101562 15.285156 5.101562 14.378906 5.101562 13.644531 5.835938 13.644531 6.742188 13.644531 6.972656 13.828125 7.15625 14.054688 7.15625 14.28125 7.15625 14.464844 6.972656 14.464844 6.742188 14.464844 6.289062 14.832031 5.921875 15.285156 5.921875 15.738281 5.921875 16.109375 6.289062 16.109375 6.742188 16.109375 6.972656 16.292969 7.15625 16.519531 7.15625zM16.519531 7.15625"/>
    <path d="M 15.285156 6.332031 C 15.058594 6.332031 14.875 6.515625 14.875 6.742188 L 14.875 9.210938 C 14.875 10.792969 13.585938 12.085938 12 12.085938 C 10.414062 12.085938 9.125 10.792969 9.125 9.210938 L 9.125 6.742188 C 9.125 6.515625 8.941406 6.332031 8.714844 6.332031 C 8.484375 6.332031 8.300781 6.515625 8.300781 6.742188 L 8.300781 9.210938 C 8.300781 11.25 9.960938 12.90625 12 12.90625 C 14.039062 12.90625 15.699219 11.25 15.699219 9.210938 L 15.699219 6.742188 C 15.699219 6.515625 15.515625 6.332031 15.285156 6.332031 Z M 15.285156 6.332031"/>
    <path d="M 21.765625 22.9375 L 20.578125 19.261719 L 20.089844 18.773438 L 20.628906 18.503906 L 20.628906 0 L 19.394531 1.234375 L 18.164062 0 L 16.929688 1.234375 L 15.699219 0 L 14.464844 1.234375 L 13.234375 0 L 12 1.234375 L 10.769531 0 L 9.535156 1.234375 L 8.300781 0 L 7.070312 1.234375 L 5.835938 0 L 4.605469 1.234375 L 3.371094 0 L 3.371094 18.144531 L 3.992188 18.675781 L 3.386719 19.257812 L 2.246094 22.875 L 2.234375 22.9375 C 2.191406 23.203125 2.269531 23.472656 2.445312 23.679688 C 2.621094 23.882812 2.878906 24 3.148438 24 L 20.851562 24 C 21.121094 24 21.378906 23.882812 21.554688 23.679688 C 21.730469 23.472656 21.808594 23.203125 21.765625 22.9375 Z M 20.929688 23.140625 C 20.917969 23.160156 20.890625 23.179688 20.851562 23.179688 L 3.148438 23.179688 C 3.109375 23.179688 3.082031 23.160156 3.070312 23.140625 C 3.058594 23.128906 3.042969 23.109375 3.042969 23.078125 L 4.105469 19.703125 L 4.824219 19.015625 C 4.882812 19.046875 4.945312 19.070312 5.015625 19.070312 L 6.953125 19.070312 C 7.179688 19.070312 7.363281 18.886719 7.363281 18.660156 C 7.363281 18.429688 7.179688 18.246094 6.953125 18.246094 L 5.015625 18.246094 C 4.945312 18.246094 4.878906 18.269531 4.820312 18.304688 L 4.195312 17.765625 L 4.195312 1.984375 L 4.605469 2.394531 L 5.835938 1.160156 L 7.070312 2.394531 L 8.300781 1.160156 L 9.535156 2.394531 L 10.765625 1.160156 L 12 2.394531 L 13.234375 1.160156 L 14.464844 2.394531 L 15.699219 1.160156 L 16.929688 2.394531 L 18.164062 1.160156 L 19.394531 2.394531 L 19.804688 1.984375 L 19.804688 17.992188 L 19.296875 18.246094 L 16.515625 18.246094 C 16.289062 18.246094 16.105469 18.429688 16.105469 18.660156 C 16.105469 18.886719 16.289062 19.070312 16.515625 19.070312 L 19.226562 19.070312 L 19.855469 19.699219 L 20.957031 23.082031 C 20.953125 23.109375 20.941406 23.128906 20.929688 23.140625 Z M 20.929688 23.140625"/>
    <path d="M11.140625 18.246094L8.300781 18.246094C8.074219 18.246094 7.890625 18.429688 7.890625 18.660156 7.890625 18.886719 8.074219 19.070312 8.300781 19.070312L11.140625 19.070312C11.367188 19.070312 11.550781 18.886719 11.550781 18.660156 11.550781 18.429688 11.367188 18.246094 11.140625 18.246094zM14.523438 18.246094L12.820312 18.246094C12.59375 18.246094 12.410156 18.429688 12.410156 18.660156 12.410156 18.886719 12.59375 19.070312 12.820312 19.070312L14.523438 19.070312C14.75 19.070312 14.9375 18.886719 14.9375 18.660156 14.9375 18.429688 14.75 18.246094 14.523438 18.246094zM14.523438 18.246094"/>
</svg>

<svg xmlns="http://www.w3.org/2000/svg" width="32" height="32" viewBox="0 0 24 24">
    <path d="M8.715 5.922a.82.82 0 0 1 .82.82.411.411 0 1 0 .82 0 1.644 1.644 0 0 0-3.285 0 .411.411 0 1 0 .82 0c0-.449.372-.82.825-.82zm0 0M16.52 7.156c.226 0 .41-.183.41-.414a1.644 1.644 0 0 0-3.285 0 .411.411 0 1 0 .82 0 .82.82 0 0 1 .82-.82c.453 0 .824.367.824.82 0 .23.184.414.41.414zm0 0"/>
    <path d="M15.285 6.332a.41.41 0 0 0-.41.41v2.469A2.88 2.88 0 0 1 12 12.086 2.88 2.88 0 0 1 9.125 9.21V6.742a.41.41 0 0 0-.41-.41.411.411 0 0 0-.414.41v2.469c0 2.039 1.66 3.695 3.699 3.695 2.04 0 3.7-1.656 3.7-3.695V6.742a.411.411 0 0 0-.415-.41zm0 0"/>
    <path d="M21.766 22.938l-1.188-3.676-.488-.489.539-.27V0l-1.234 1.234L18.165 0 16.93 1.234 15.7 0l-1.235 1.234L13.235 0 12 1.234 10.77 0 9.535 1.234 8.301 0 7.07 1.234 5.835 0l-1.23 1.234L3.37 0v18.145l.621.53-.605.583-1.14 3.617-.013.063A.919.919 0 0 0 3.148 24h17.704a.919.919 0 0 0 .914-1.063zm-.836.203a.09.09 0 0 1-.078.039H3.148a.09.09 0 0 1-.078-.04.085.085 0 0 1-.027-.062l1.062-3.375.72-.687a.403.403 0 0 0 .19.054h1.938a.41.41 0 0 0 .41-.41.411.411 0 0 0-.41-.414H5.016a.381.381 0 0 0-.196.059l-.625-.54V1.986l.41.41 1.23-1.235L7.07 2.395 8.3 1.16l1.235 1.235 1.23-1.235L12 2.395l1.234-1.235 1.23 1.235L15.7 1.16l1.23 1.235 1.235-1.235 1.23 1.235.41-.41v16.007l-.507.254h-2.781a.411.411 0 0 0-.41.414c0 .227.183.41.41.41h2.71l.63.63 1.101 3.382a.103.103 0 0 1-.027.059zm0 0"/>
    <path d="M11.14 18.246H8.3a.411.411 0 0 0-.41.414c0 .227.184.41.41.41h2.84a.41.41 0 0 0 .41-.41.411.411 0 0 0-.41-.414zm0 0M14.523 18.246H12.82a.411.411 0 0 0-.41.414c0 .227.184.41.41.41h1.703a.413.413 0 0 0 .415-.41.414.414 0 0 0-.415-.414zm0 0"/>
</svg>
